svg/RightHanded/zoom-in.svg

<?xml version="1.0" encoding="UTF-8" standalone="no"?>
<!-- Created with Inkscape (http://www.inkscape.org/) -->

<svg
   xmlns:a="http://ns.adobe.com/AdobeSVGViewerExtensions/3.0/"
   xmlns:dc="http://purl.org/dc/elements/1.1/"
   xmlns:cc="http://creativecommons.org/ns#"
   xmlns:rdf="http://www.w3.org/1999/02/22-rdf-syntax-ns#"
   xmlns:svg="http://www.w3.org/2000/svg"
   xmlns="http://www.w3.org/2000/svg"
   xmlns:xlink="http://www.w3.org/1999/xlink"
   version="1.0"
   width="500"
   height="500"
   viewBox="0 0 1000 1000"
   id="page"
   xml:space="preserve"><metadata
     id="metadata12"><rdf:RDF><cc:Work
         rdf:about=""><dc:format>image/svg+xml</dc:format><dc:type
           rdf:resource="http://purl.org/dc/dcmitype/StillImage" /><dc:title></dc:title></cc:Work></rdf:RDF></metadata><defs
     id="defs38"><linearGradient
       x1="27.4023"
       y1="304.52881"
       x2="27.4023"
       y2="412.12839"
       id="XMLID_1_"
       gradientUnits="userSpaceOnUse"
       gradientTransform="matrix(0.7,0,0,0.7,210.9908,-16.65302)">
			<stop
   id="stop18"
   style="stop-color:#999999;stop-opacity:1"
   offset="0" />
			<stop
   id="stop20"
   style="stop-color:#555555;stop-opacity:1"
   offset="1" />
			<a:midPointStop
   style="stop-color:#999999"
   offset="0" />
			<a:midPointStop
   style="stop-color:#999999"
   offset="0.5" />
			<a:midPointStop
   style="stop-color:#555555"
   offset="1" />
		</linearGradient><linearGradient
       x1="151.59764"
       y1="79.017334"
       x2="151.59764"
       y2="337.07462"
       id="linearGradient3686"
       xlink:href="#XMLID_1_"
       gradientUnits="userSpaceOnUse"
       gradientTransform="matrix(2,0,0,2,1.4e-4,0)" /><filter
       x="-0.23905654"
       y="-0.24095094"
       width="1.4781131"
       height="1.4819019"
       color-interpolation-filters="sRGB"
       id="filter3825"><feGaussianBlur
         id="feGaussianBlur3827"
         stdDeviation="49.808029" /></filter></defs><path
     d="m 1340.4452,684.14611 c -113.1251,0 -204.8765,91.75298 -204.875,204.875 0,113.12669 91.7499,204.81249 204.875,204.81249 32.0338,0 62.3082,-7.3283 89.3125,-20.4375 32.0759,38.9347 119.0803,148.5481 185.5625,90 65.5093,-67.9835 -44.7238,-152.0905 -88.625,-189.12499 11.8959,-25.95242 18.563,-54.83256 18.5625,-85.25 0,-113.12202 -91.6889,-204.875 -204.8125,-204.875 z m -4.625,62.0625 c 79.1865,0 143.3761,64.1896 143.375,143.375 10e-4,79.1854 -64.1874,143.37499 -143.375,143.37499 -79.1876,0 -143.3771,-64.18631 -143.375,-143.37499 0,-79.18542 64.1875,-143.37498 143.375,-143.375 z"
     transform="matrix(1.2,0,0,1.2,-1099.4935,-582.55212)"
     id="path1396-0"
     style="opacity:0.15;fill:#111111;fill-opacity:1;fill-rule:nonzero;stroke:none;filter:url(#filter3825)" /><path
     d="m 514.0657,229.66357 c 79.18646,0 143.37606,64.1896 143.37496,143.375 10e-4,79.1854 -64.1874,143.375 -143.37496,143.375 -79.1876,0 -143.37716,-64.18632 -143.375,-143.375 -10e-4,-79.18542 64.18742,-143.37498 143.375,-143.375 z"
     id="path1396-6"
     style="opacity:0.5;fill:#ffffff;fill-opacity:1;fill-rule:nonzero;stroke:none" /><path
     d="m 518.07041,168.03467 c -113.12512,0 -204.87656,91.75298 -204.875,204.875 -0.003,113.12666 91.74988,204.8125 204.875,204.8125 32.03376,0 62.30812,-7.32826 89.3125,-20.4375 32.07584,38.93468 119.08022,148.54808 185.5625,90 65.50922,-67.9835 -44.72388,-152.09048 -88.625,-189.125 11.89588,-25.95242 18.56292,-54.83256 18.5625,-85.25 0.002,-113.12202 -91.68892,-204.875 -204.8125,-204.875 z m -4.625,62.0625 c 79.1865,0 143.37608,64.1896 143.375,143.375 10e-4,79.1854 -64.1874,143.375 -143.375,143.375 -79.1876,0 -143.37716,-64.18632 -143.375,-143.375 -10e-4,-79.18542 64.18742,-143.37498 143.375,-143.375 z"
     id="path1396"
     style="opacity:0.75;fill:url(#linearGradient3686);fill-opacity:1;fill-rule:nonzero;stroke:#000000;stroke-width:20;stroke-linecap:round;stroke-linejoin:miter;stroke-miterlimit:3.13260007;stroke-dasharray:none" /><path
     d="m 523.78916,277.22217 c -5.73433,1.37157 -11.95555,-1.31097 -17.375,1.0625 -8.27771,6.23313 -5.92627,18.64077 -6.5625,27.78125 -0.22508,16.08211 -0.15994,32.16672 -0.21875,48.25 -24.63246,1.75036 -49.99311,-3.47266 -74.09375,2.59375 -6.40189,6.32602 -1.65048,16.4087 -2.8125,24.3125 0.59473,8.16208 10.53873,9.51288 17.0625,9.625 19.845,0.64232 39.70821,0.36142 59.5625,0.5 1.72608,24.56345 -3.15736,49.77245 2.5625,73.875 6.08998,6.67824 16.20673,1.88414 24,3.0625 8.81842,-0.3909 10.01608,-10.80235 10.125,-17.625 0.53271,-19.6696 -0.009,-39.35367 0.21875,-59.03125 24.69268,-1.80715 50.16493,3.3412 74.3125,-2.71875 6.39744,-6.1859 1.71027,-16.09301 2.875,-23.84375 -0.3909,-8.81842 -10.80235,-10.01608 -17.625,-10.125 -19.7113,-0.52609 -39.43724,-0.0651 -59.15625,-0.28125 -1.7935,-24.79512 3.58966,-50.34114 -2.71875,-74.59375 -2.32495,-3.03435 -6.71642,-2.85563 -10.15625,-2.84375 z"
     id="path3380"
     style="opacity:0.75;fill:#010101;fill-opacity:1;stroke:#000000;stroke-width:10;stroke-miterlimit:4;stroke-opacity:1;stroke-dasharray:none" /></svg>

<?xml version="1.0" encoding="UTF-8" standalone="no"?>
<!-- Created with Inkscape (http://www.inkscape.org/) -->
<svg
   xmlns:a="http://ns.adobe.com/AdobeSVGViewerExtensions/3.0/"
   xmlns:svg="http://www.w3.org/2000/svg"
   xmlns="http://www.w3.org/2000/svg"
   xmlns:xlink="http://www.w3.org/1999/xlink"
   version="1.0"
   width="500"
   height="500"
   viewBox="0 0 1000 1000"
   id="page"
   xml:space="preserve"><defs
     id="defs38"><linearGradient
       x1="27.4023"
       y1="304.52881"
       x2="27.4023"
       y2="412.12839"
       id="XMLID_1_"
       gradientUnits="userSpaceOnUse"
       gradientTransform="matrix(0.7,0,0,0.7,210.9908,-16.65302)">
			<stop
   id="stop18"
   style="stop-color:#999999;stop-opacity:1"
   offset="0" />
			<stop
   id="stop20"
   style="stop-color:#555555;stop-opacity:1"
   offset="1" />
			<a:midPointStop
   offset="0"
   style="stop-color:#999999" />
			<a:midPointStop
   offset="0.5"
   style="stop-color:#999999" />
			<a:midPointStop
   offset="1"
   style="stop-color:#555555" />
		</linearGradient><linearGradient
       x1="151.59764"
       y1="79.017334"
       x2="151.59764"
       y2="337.07462"
       id="linearGradient3686"
       xlink:href="#XMLID_1_"
       gradientUnits="userSpaceOnUse"
       gradientTransform="matrix(2,0,0,2,1.4e-4,0)" /></defs><path
     d="M 518.07041,168.03467 C 404.94529,168.03467 313.19385,259.78765 313.19541,372.90967 C 313.19231,486.03633 404.94529,577.72217 518.07041,577.72217 C 550.10417,577.72217 580.37853,570.39391 607.38291,557.28467 C 639.45875,596.21935 726.46313,705.83275 792.94541,647.28467 C 858.45463,579.30117 748.22153,495.19419 704.32041,458.15967 C 716.21629,432.20725 722.88333,403.32711 722.88291,372.90967 C 722.88447,259.78765 631.19399,168.03467 518.07041,168.03467 z M 513.44541,230.09717 C 592.63191,230.09717 656.82149,294.28677 656.82041,373.47217 C 656.82145,452.65757 592.63301,516.84717 513.44541,516.84717 C 434.25781,516.84717 370.06825,452.66085 370.07041,373.47217 C 370.06933,294.28675 434.25783,230.09719 513.44541,230.09717 z"
     id="path1396"
     style="fill:url(#linearGradient3686);fill-opacity:1;fill-rule:nonzero;stroke:#000000;stroke-width:20;stroke-linecap:round;stroke-linejoin:miter;stroke-miterlimit:3.13260007;stroke-dasharray:none" /><path
     d="M 523.78916,277.22217 C 518.05483,278.59374 511.83361,275.9112 506.41416,278.28467 C 498.13645,284.5178 500.48789,296.92544 499.85166,306.06592 C 499.62658,322.14803 499.69172,338.23264 499.63291,354.31592 C 475.00045,356.06628 449.6398,350.84326 425.53916,356.90967 C 419.13727,363.23569 423.88868,373.31837 422.72666,381.22217 C 423.32139,389.38425 433.26539,390.73505 439.78916,390.84717 C 459.63416,391.48949 479.49737,391.20859 499.35166,391.34717 C 501.07774,415.91062 496.1943,441.11962 501.91416,465.22217 C 508.00414,471.90041 518.12089,467.10631 525.91416,468.28467 C 534.73258,467.89377 535.93024,457.48232 536.03916,450.65967 C 536.57187,430.99007 536.03042,411.306 536.25791,391.62842 C 560.95059,389.82127 586.42284,394.96962 610.57041,388.90967 C 616.96785,382.72377 612.28068,372.81666 613.44541,365.06592 C 613.05451,356.2475 602.64306,355.04984 595.82041,354.94092 C 576.10911,354.41483 556.38317,354.87582 536.66416,354.65967 C 534.87066,329.86455 540.25382,304.31853 533.94541,280.06592 C 531.62046,277.03157 527.22899,277.21029 523.78916,277.22217 z"
     id="path3380"
     style="fill:#010101;fill-opacity:1;stroke:#000000;stroke-width:10;stroke-miterlimit:4;stroke-dasharray:none;stroke-opacity:1" /></svg>
